modules/coreui-icons-brand/icons/when-i-work.svg

<svg version="1.1" xmlns="http://www.w3.org/2000/svg" width="32" height="32" viewBox="0 0 32 32">
<title>when-i-work</title>
<path d="M16 32c-8.875 0-16-7.224-16-16 0-8.875 7.125-16 16-16s16 7.125 16 16c0 8.776-7.125 16-16 16zM16 2.688c-7.328 0-13.318 5.984-13.318 13.313s5.99 13.318 13.318 13.318c7.328 0 13.318-5.99 13.318-13.318s-5.99-13.313-13.318-13.313zM23.849 17.547h-11.563c-0.516 0-0.927-0.411-0.932-0.917v-1.349c0-0.521 0.411-0.932 0.932-0.932h11.661c0.516 0 0.927 0.417 0.927 0.932v1.339c-0.099 0.516-0.516 0.927-1.026 0.927zM20.854 12.385h-11.667c-0.51 0.005-0.927-0.406-0.932-0.917v-1.349c0-0.417 0.417-0.828 0.932-0.828h11.661c0.417 0 0.828 0.417 0.828 0.828v1.339c0 0.516-0.411 0.927-0.823 0.927zM9.188 19.615h11.667c0.516 0 0.927 0.411 0.927 0.927v1.339c0 0.516-0.411 0.927-0.922 0.932h-11.672c-0.516-0.104-0.927-0.516-0.927-1.031v-1.344c-0.005-0.411 0.411-0.823 0.927-0.823z"></path>
</svg>

<svg xmlns="http://www.w3.org/2000/svg" width="32" height="32" viewBox="0 0 32 32"><path d="M16 32C7.125 32 0 24.776 0 16 0 7.125 7.125 0 16 0s16 7.125 16 16c0 8.776-7.125 16-16 16zm0-29.312c-7.328 0-13.318 5.984-13.318 13.313S8.672 29.319 16 29.319c7.328 0 13.318-5.99 13.318-13.318S23.328 2.688 16 2.688zm7.849 14.859H12.286a.927.927 0 01-.932-.917v-1.349c0-.521.411-.932.932-.932h11.661c.516 0 .927.417.927.932v1.339c-.099.516-.516.927-1.026.927zm-2.995-5.162H9.187a.925.925 0 01-.932-.917v-1.349c0-.417.417-.828.932-.828h11.661c.417 0 .828.417.828.828v1.339c0 .516-.411.927-.823.927zm-11.666 7.23h11.667c.516 0 .927.411.927.927v1.339a.928.928 0 01-.922.932H9.188c-.516-.104-.927-.516-.927-1.031v-1.344c-.005-.411.411-.823.927-.823z"/></svg>
